public/svg/greaterlondonauthority.svg

<svg height="100" viewBox="0 0 195 100" width="195" xmlns="http://www.w3.org/2000/svg"><g fill="#353d42" transform="translate(30 9)"><path d="m66.0932874 29.2811653v22.1444964c1.5267982.0362918 3.0199008.0362918 4.5145718.0362918 4.0156269 0 5.3136948-.0674995 6.8729988-.4330408 1.7920096-.3655684 3.4520491-1.2944711 4.8472016-2.6562525 2.0925394-2.0258241 3.2876272-4.9478019 3.2876272-8.1007546 0-3.5856419-1.5944059-6.8075545-4.2847056-8.7968434-2.2898457-1.660337-4.3163459-2.1943837-8.6318806-2.1943837zm6.2721015 4.2865986c3.0891311 0 4.7806757.4968625 6.2088208 1.7914958 1.2954176 1.1607972 1.9931561 2.8535858 1.9931561 4.9461794 0 3.3874162-1.8248941 5.84428-4.81475 6.5081876-.8955045.1979283-1.3939355.231002-2.9863673.231002h-1.463923v-13.4466307c.4995668-.0304775.8325753-.0304775 1.0631175-.0304775z"/><path d="m99.8782072 28.8538846c-6.6393466 0-11.7542747 4.9764676-11.7542747 11.4530148 0 6.5406393 5.144946 11.5866076 11.8543341 11.5866076 6.6707164 0 11.7537334-4.9807945 11.7537334-11.4849256 0-6.5100807-5.180372-11.5546968-11.8540632-11.5546968zm.0261507 4.6787233c3.8160491 0 6.6731501 2.9220047 6.6731501 6.8091771 0 3.8503937-2.921193 6.8684014-6.607165 6.8684014-3.7162601 0-6.739406-3.0861563-6.739406-6.9368204 0-3.7835974 2.923357-6.7410286 6.6734209-6.7410286z"/><path d="m26.0019214 28.8538846c-6.6385353 0-11.7515704 4.9764676-11.7515704 11.4530148 0 6.5406393 5.1444051 11.5866076 11.8537932 11.5866076 6.6731504 0 11.7502183-4.9807945 11.7502183-11.4849256 0-6.5100807-5.1768568-11.5546968-11.8521707-11.5546968zm.0261506 4.6787233c3.8211872 0 6.6761252 2.9220047 6.6761252 6.8091771 0 3.8503937-2.9206527 6.8684014-6.6074357 6.8684014-3.718694 0-6.7391356-3.0861563-6.7391356-6.9368204 0-3.7835974 2.9209231-6.7410286 6.6704461-6.7410286z"/><path d="m5.32478244 46.7482906h8.49828786v4.6792641h-13.71138238v-22.1439556h5.21336495z"/><path d="m61.7772119 51.4267434h-4.7141497l-10.391574-13.376589v13.376589h-5.2136353v-22.1439556h4.7173948l10.3913035 13.5469605v-13.5469605h5.2103902z"/><path d="m135.2154 29.2838696h-5.211743v13.5469604l-10.391573-13.5469604h-4.716314v22.1439556h5.213906v-13.3765891l10.389681 13.3765891h4.716043z"/><path d="m97.7769599.45324202v2.24243923h-6.756984v18.54965985h-2.5633053v-18.54965985h-6.9516942v-2.24243923z"/><path d="m34.7746965 61.0757144v2.2053361h5.8234569v18.2486703h2.1521694v-18.2486703h5.6587645v-2.2053361z"/><path d="m75.8774737 60.6295035c-5.0600306 0-9.0242757 4.6811572-9.0242757 10.655244 0 5.9373082 3.9983193 10.5933153 9.1048641 10.5933153 5.092212 0 9.0810663-4.6560071 9.0810663-10.5933153v-.4003728c-.2146815-5.84428-4.1538171-10.2548712-9.1616547-10.2548712zm.0533614 2.2057148c3.7822452 0 6.7875427 3.4748735 6.9800894 8.0800396v.4003998c0 4.7628273-2.964192 8.3565821-6.8986897 8.3565821-4.0118409 0-7.0385024-3.6218796-7.0385024-8.4185107 0-4.7993354 2.9893421-8.4185108 6.9571027-8.4185108z"/><path d="m0 10.7052736c0-6.10308225 4.79771282-10.7052736 11.1574339-10.7052736 1.1301844 0 2.3175649.15752594 3.6297222.47541735 1.5765845.38947443 2.1960063.63864937 3.4563761 1.40045293v2.50308044c-.1590296-.09446148-1.461381-.87065196-1.461381-.87065196-1.5826422-.82478689-3.3963404-1.26299296-5.2387855-1.26299296-5.13521043 0-9.00994293 3.67731801-9.00994293 8.5602165 0 2.1050063.79690548 4.0810712 2.30009508 5.719341 1.76756275 1.9360141 3.87229862 2.8351965 6.61581905 2.8351965 1.8007717 0 2.6590379-.1861646 4.5765005-.9966457l.2322973-.097355v-5.8080423h-4.2030355v-2.1765894h6.5438845v9.4937437c-.2952563.1346204-1.0668225.504083-1.0668225.504083-1.9896675.8648918-4.1611187 1.3259763-6.2764284 1.3259763-6.52116828 0-11.2557328-4.5821795-11.2557328-10.8999838"/><path d="m44.8212007.45324202v20.79207198h13.232179v-2.2395997h-10.6027803v-8.0047516h8.4693518v-2.27394445h-8.4693518v-6.12877321h10.0840941v-2.14505711z"/><path d="m100.932887.45324202v20.79207198h13.230827v-2.2395997h-10.603591v-8.0047516h8.469622v-2.27394445h-8.469622v-6.12877321h10.084094v-2.14505711z"/><path d="m24.225191.45324202v20.79261288h2.534829v-8.9812773h3.3698382s5.5684406 8.6462135 5.7855966 8.9812773h2.9247091c-.6987932-1.0424296-6.3267286-9.4742726-6.3267286-9.4742726l.5040019-.1400021c1.2071219-.3407698 1.6237476-.5641997 2.224104-1.197116 1.003109-1.00240582 1.6035735-2.52065841 1.6035735-4.05862541 0-2.78083991-1.8285178-5.09735014-4.4464232-5.63848217-.8005022-.16896516-1.5827233-.2528528-2.340254-.25569232l-2.6249907-.02863862zm2.5330442 2.17715724h2.0001062c.6701546 0 1.7948762.06547129 2.4349319.16566591.6324294.06885168 1.240466.27778651 1.7377072.59859857.9118385.54702742 1.4749025 1.70401151 1.4749025 3.01286954 0 2.54031876-1.5607373 3.77440262-4.7749966 3.77440262h-2.8727864z"/><path d="m120.479626.45324202v20.79261288h2.532638v-8.9812773h3.368486s5.570334 8.6462135 5.785326 8.9812773h2.924709c-.69928-1.0424296-6.326728-9.4742726-6.326728-9.4742726l.504164-.1400021c1.207987-.3407698 1.623612-.5641997 2.225267-1.197116 1.005461-1.00240582 1.603195-2.52065841 1.603195-4.05862541 0-2.78083991-1.830087-5.09735014-4.447235-5.63848217-.80299-.16896516-1.578748-.25277167-2.34047-.25569232l-2.6261-.02863862zm2.532584 2.17715724h1.99724c.670181 0 1.798364.06552538 2.433796.16566591.636107.06877055 1.240898.27778651 1.7396.59859857.908918.54702742 1.476606 1.70401151 1.476606 3.01286954 0 2.54031876-1.561603 3.77440262-4.775808 3.77440262h-2.871434z"/><path d="m69.7197644.45324202c-.1839118.45824499-7.9879849 19.80472918-8.3855182 20.79261288h2.664744c.1746875-.4324188 2.0374527-5.1698256 2.0374527-5.1698256h9.7944627s1.9256566 4.7403815 2.1003278 5.1698256h2.7567716c-.4158415-.9937791-8.5112686-20.3458612-8.6967841-20.79261288zm1.1596343 3.03288142 4.1237993 10.34857536h-8.0999433l3.6256657-9.43992788z"/><path d="m17.9457879 61.07301v9.9875503c0 2.311345.0991669 4.0962154.7529063 6.0046455.3485042 1.0172525.8705168 2.0292586 1.645274 2.7748904.7695379.7406289 2.1024102 2.1371065 4.7825687 2.1566586v.0032452c.0279706 0 .0533614-.0027043.0808939-.0027043.0272459-.0000811.0527097.0027043.0803531.0027043v-.0032452c2.6801315-.019471 4.0129227-1.4160297 4.7825687-2.1566586.7747031-.7456318 1.2967969-1.7576379 1.6452469-2.7748904.6537395-1.9084572.7529335-3.6935438.7529335-6.0046455v-9.9875503h-2.0954331v10.0524537c0 1.9498872-.1806423 3.2522008-.3724643 4.4191097-.4112441 2.5018365-2.532909 4.4445302-4.7931155 4.5207917-2.260504-.0758829-4.3823311-2.0187118-4.7936564-4.5207917-.1918301-1.1670441-.3724643-2.4692225-.3724643-4.4191097v-10.0524537z"/><path d="m64.5085629 61.07301v20.4540336h-2.1526562v-10.1114076h-9.7936514v10.1114076h-2.1232604v-20.4540336h2.1232604v8.1369924h9.7936514v-8.1369924z"/><path d="m100.835532 81.5283957h2.123342v-20.4540335h-2.123342z"/><path d="m134.780006 61.07301c-.57545 1.0421051-5.958942 10.7339393-5.958942 10.7339393v9.7200943h-2.2022v-9.7200943s-5.516517-9.6833156-6.11444-10.7339393h2.315807c.182752.3267075 4.889389 8.7735865 4.889389 8.7735865s4.54486-8.4385227 4.723615-8.7735865z"/><path d="m119.403311 61.0297411v2.2082027h-5.659576v18.2429913h-2.149898v-18.2429913h-5.824268v-2.2081756z"/><path d="m87.197707 61.0756873v20.4532493h2.1253698v-8.8384898h2.8262722s4.6627679 8.5061303 4.8469313 8.8384898h2.4502112c-.5858072-1.0280968-5.3045002-9.3203975-5.3045002-9.3203975l.4239003-.1404347c1.0141426-.335226 1.3629712-.5520304 1.8650531-1.1745621.8425542-.9885869 1.3426889-2.4817705 1.3426889-3.9942629 0-2.7321624-1.5324773-5.0129758-3.7273477-5.545454-.6699653-.1633402-1.3230557-.2472008-1.9588114-.2472008l-2.1999005-.0309373zm2.1253698 2.1425421h1.6751835c.5615766 0 1.5082737.0617123 2.0390212.1573096.5302607.0705013 1.0385625.2789494 1.457.5943258.7642645.537995 1.2399523 1.6730472 1.2399523 2.9601355 0 2.4982668-1.3114271 3.7132853-4.0023758 3.7132853h-2.4087812z"/><path d="m7.06094818 60.9729507c-.15303409.4506999-6.69559617 19.4772374-7.02714433 20.4488953h2.23492126c.14326342-.4253065 1.70755415-5.0843695 1.70755415-5.0843695h8.20595214s1.6134713 4.6619566 1.7600178 5.0843695h2.3118858c-.3509651-.977364-7.13477575-20.0094453-7.29243691-20.4488953zm.9730641 2.9828517 3.45772822 10.1773927h-6.78916524l3.03829003-9.2838894z"/></g></svg>

<?xml version="1.0" encoding="UTF-8"?>
<svg width="195px" height="100px" viewBox="0 0 195 100" version="1.1" xmlns="http://www.w3.org/2000/svg" xmlns:xlink="http://www.w3.org/1999/xlink">
    <title>Artboard</title>
    <g id="Artboard" stroke="none" stroke-width="1" fill="none" fill-rule="evenodd">
        <g id="greaterlondonauthority" transform="translate(30.000000, 9.000000)" fill="#353D42" fill-rule="nonzero">
            <path d="M66.0932874,29.2811653 L66.0932874,51.4256617 C67.6200856,51.4619535 69.1131882,51.4619535 70.6078592,51.4619535 C74.6234861,51.4619535 75.921554,51.394454 77.480858,51.0289127 C79.2728676,50.6633443 80.9329071,49.7344416 82.3280596,48.3726602 C84.420599,46.3468361 85.6156868,43.4248583 85.6156868,40.2719056 C85.6156868,36.6862637 84.0212809,33.4643511 81.3309812,31.4750622 C79.0411355,29.8147252 77.0146353,29.2806785 72.6991006,29.2806785 L66.0932874,29.2811653 Z M72.3653889,33.5677639 C75.45452,33.5677639 77.1460646,34.0646264 78.5742097,35.3592597 C79.8696273,36.5200569 80.5673658,38.2128455 80.5673658,40.3054391 C80.5673658,43.6928553 78.7424717,46.1497191 75.7526158,46.8136267 C74.8571113,47.011555 74.3586803,47.0446287 72.7662485,47.0446287 L71.3023255,47.0446287 L71.3023255,33.597998 C71.8018923,33.5675205 72.1349008,33.5675205 72.365443,33.5675205 L72.3653889,33.5677639 Z" id="Shape"></path>
            <path d="M99.8782072,28.8538846 C93.2388606,28.8538846 88.1239325,33.8303522 88.1239325,40.3068994 C88.1239325,46.8475387 93.2688785,51.893507 99.9782666,51.893507 C106.648983,51.893507 111.732,46.9127125 111.732,40.4085814 C111.732,33.8985007 106.551628,28.8538846 99.8779368,28.8538846 L99.8782072,28.8538846 Z M99.9043579,33.5326079 C103.720407,33.5326079 106.577508,36.4546126 106.577508,40.341785 C106.577508,44.1921787 103.656315,47.2101864 99.970343,47.2101864 C96.2540829,47.2101864 93.230937,44.1240301 93.230937,40.273366 C93.230937,36.4897686 96.154294,33.5323374 99.9043579,33.5323374 L99.9043579,33.5326079 Z" id="Shape"></path>
            <path d="M26.0019214,28.8538846 C19.3633861,28.8538846 14.250351,33.8303522 14.250351,40.3068994 C14.250351,46.8475387 19.3947561,51.893507 26.1041442,51.893507 C32.7772946,51.893507 37.8543625,46.9127125 37.8543625,40.4085814 C37.8543625,33.8985007 32.6775057,28.8538846 26.0021918,28.8538846 L26.0019214,28.8538846 Z M26.028072,33.5326079 C29.8492592,33.5326079 32.7041972,36.4546126 32.7041972,40.341785 C32.7041972,44.1921787 29.7835445,47.2101864 26.0967615,47.2101864 C22.3780675,47.2101864 19.3576259,44.1240301 19.3576259,40.273366 C19.3576259,36.4897686 22.278549,33.5323374 26.028072,33.5323374 L26.028072,33.5326079 Z" id="Shape"></path>
            <polygon id="Path" points="5.32478244 46.7482906 13.8230703 46.7482906 13.8230703 51.4275547 0.11168792 51.4275547 0.11168792 29.2835991 5.32505287 29.2835991"></polygon>
            <polygon id="Path" points="61.7772119 51.4267434 57.0630622 51.4267434 46.6714882 38.0501544 46.6714882 51.4267434 41.4578529 51.4267434 41.4578529 29.2827878 46.1752477 29.2827878 56.5665512 42.8297483 56.5665512 29.2827878 61.7769414 29.2827878"></polygon>
            <polygon id="Path" points="135.2154 29.2838696 130.003657 29.2838696 130.003657 42.83083 119.612084 29.2838696 114.89577 29.2838696 114.89577 51.4278252 120.109676 51.4278252 120.109676 38.0512361 130.499357 51.4278252 135.2154 51.4278252"></polygon>
            <polygon id="Path" points="97.7769599 0.45324202 97.7769599 2.69568125 91.0199759 2.69568125 91.0199759 21.2453411 88.4566706 21.2453411 88.4566706 2.69568125 81.5049764 2.69568125 81.5049764 0.45324202"></polygon>
            <polygon id="Path" points="34.7746965 61.0757144 34.7746965 63.2810505 40.5981534 63.2810505 40.5981534 81.5297208 42.7503228 81.5297208 42.7503228 63.2810505 48.4090873 63.2810505 48.4090873 61.0757144"></polygon>
            <path d="M75.8774737,60.6295035 C70.8174431,60.6295035 66.853198,65.3106607 66.853198,71.2847475 C66.853198,77.2220557 70.8515173,81.8780628 75.9580621,81.8780628 C81.0502741,81.8780628 85.0391284,77.2220557 85.0391284,71.2847475 L85.0391284,70.8843747 C84.8244469,65.0400947 80.8853113,60.6295035 75.8774737,60.6295035 L75.8774737,60.6295035 Z M75.9308351,62.8352183 C79.7130803,62.8352183 82.7183778,66.3100918 82.9109245,70.9152579 L82.9109245,71.3156577 C82.9109245,76.078485 79.9467325,79.6722398 76.0122348,79.6722398 C72.0003939,79.6722398 68.9737324,76.0503602 68.9737324,71.2537291 C68.9737324,66.4543937 71.9630745,62.8352183 75.9308351,62.8352183 L75.9308351,62.8352183 Z" id="Shape"></path>
            <path d="M3.8430528e-15,10.7052736 C3.8430528e-15,4.60219135 4.79771282,0 11.1574339,0 C12.2876183,0 13.4749988,0.157525941 14.7871561,0.475417346 C16.3637406,0.864891783 16.9831624,1.11406672 18.2435322,1.87587028 L18.2435322,4.37895072 C18.0845026,4.28448924 16.7821512,3.50829876 16.7821512,3.50829876 C15.199509,2.68351187 13.3858108,2.2453058 11.5433657,2.2453058 C6.40815527,2.2453058 2.53342277,5.92262381 2.53342277,10.8055223 C2.53342277,12.9105286 3.33032825,14.8865935 4.83351785,16.5248633 C6.6010806,18.4608774 8.70581647,19.3600598 11.4493369,19.3600598 C13.2501086,19.3600598 14.1083748,19.1738952 16.0258374,18.3634141 L16.2581347,18.2660591 L16.2581347,12.4580168 L12.0550992,12.4580168 L12.0550992,10.2814274 L18.5989837,10.2814274 L18.5989837,19.7751711 C18.3037274,19.9097915 17.5321612,20.2792541 17.5321612,20.2792541 C15.5424937,21.1441459 13.3710425,21.6052304 11.2557328,21.6052304 C4.73456452,21.6052304 3.8430528e-15,17.0230509 3.8430528e-15,10.7052466" id="Path"></path>
            <polygon id="Path" points="44.8212007 0.45324202 44.8212007 21.245314 58.0533797 21.245314 58.0533797 19.0057143 47.4505994 19.0057143 47.4505994 11.0009627 55.9199512 11.0009627 55.9199512 8.72701825 47.4505994 8.72701825 47.4505994 2.59824504 57.5346935 2.59824504 57.5346935 0.453187934"></polygon>
            <polygon id="Path" points="100.932887 0.45324202 100.932887 21.245314 114.163714 21.245314 114.163714 19.0057143 103.560123 19.0057143 103.560123 11.0009627 112.029745 11.0009627 112.029745 8.72701825 103.560123 8.72701825 103.560123 2.59824504 113.644217 2.59824504 113.644217 0.453187934"></polygon>
            <path d="M24.225191,0.45324202 L24.225191,21.2458549 L26.76002,21.2458549 L26.76002,12.2645776 L30.1298582,12.2645776 C30.1298582,12.2645776 35.6982988,20.9107911 35.9154548,21.2458549 L38.8401639,21.2458549 C38.1413707,20.2034253 32.5134353,11.7715823 32.5134353,11.7715823 L33.0174372,11.6315802 C34.2245591,11.2908104 34.6411848,11.0673805 35.2415412,10.4344642 C36.2446502,9.43205838 36.8451147,7.91380579 36.8451147,6.37583879 C36.8451147,3.59499888 35.0165969,1.27848865 32.3986915,0.737356618 C31.5981893,0.568391455 30.8159682,0.48450382 30.0584375,0.481664297 L27.4334468,0.453025675 L24.225191,0.45324202 Z M26.7582352,2.63039926 L28.7583414,2.63039926 C29.428496,2.63039926 30.5532176,2.69587055 31.1932733,2.79606517 C31.8257027,2.86491685 32.4337393,3.07385168 32.9309805,3.39466374 C33.842819,3.94169116 34.405883,5.09867525 34.405883,6.40753328 C34.405883,8.94785204 32.8451457,10.1819359 29.6308864,10.1819359 L26.7581,10.1819359 L26.7582352,2.63039926 Z" id="Shape"></path>
            <path d="M120.479626,0.45324202 L120.479626,21.2458549 L123.012264,21.2458549 L123.012264,12.2645776 L126.38075,12.2645776 C126.38075,12.2645776 131.951084,20.9107911 132.166076,21.2458549 L135.090785,21.2458549 C134.391505,20.2034253 128.764057,11.7715823 128.764057,11.7715823 L129.268221,11.6315802 C130.476208,11.2908104 130.891833,11.0673805 131.493488,10.4344642 C132.498949,9.43205838 133.096683,7.91380579 133.096683,6.37583879 C133.096683,3.59499888 131.266596,1.27848865 128.649448,0.737356618 C127.846458,0.568391455 127.0707,0.48458495 126.308978,0.481664297 L123.682878,0.453025675 L120.479626,0.45324202 Z M123.01221,2.63039926 L125.00945,2.63039926 C125.679631,2.63039926 126.807814,2.69592464 127.443246,2.79606517 C128.079353,2.86483572 128.684144,3.07385168 129.182846,3.39466374 C130.091764,3.94169116 130.659452,5.09867525 130.659452,6.40753328 C130.659452,8.94785204 129.097849,10.1819359 125.883644,10.1819359 L123.01221,10.1819359 L123.01221,2.63039926 Z" id="Shape"></path>
            <path d="M69.7197644,0.45324202 C69.5358526,0.91148701 61.7317795,20.2579712 61.3342462,21.2458549 L63.9989902,21.2458549 C64.1736777,20.8134361 66.0364429,16.0760293 66.0364429,16.0760293 L75.8309056,16.0760293 C75.8309056,16.0760293 77.7565622,20.8164108 77.9312334,21.2458549 L80.688005,21.2458549 C80.2721635,20.2520758 72.1767364,0.899993701 71.9912209,0.45324202 L69.7197644,0.45324202 Z M70.8793987,3.48612344 L75.003198,13.8346988 L66.9032547,13.8346988 L70.5289204,4.39477092 L70.8793987,3.48612344 Z" id="Shape"></path>
            <path d="M17.9457879,61.07301 L17.9457879,71.0605603 C17.9457879,73.3719053 18.0449548,75.1567757 18.6986942,77.0652058 C19.0471984,78.0824583 19.569211,79.0944644 20.3439682,79.8400962 C21.1135061,80.5807251 22.4463784,81.9772027 25.1265369,81.9967548 L25.1265369,82 C25.1545075,82 25.1798983,81.9972957 25.2074308,81.9972957 C25.2346767,81.9972146 25.2601405,82 25.2877839,82 L25.2877839,81.9967548 C27.9679154,81.9772838 29.3007066,80.5807251 30.0703526,79.8400962 C30.8450557,79.0944644 31.3671495,78.0824583 31.7155995,77.0652058 C32.369339,75.1567486 32.468533,73.371662 32.468533,71.0605603 L32.468533,61.07301 L30.3730999,61.07301 L30.3730999,71.1254637 C30.3730999,73.0753509 30.1924576,74.3776645 30.0006356,75.5445734 C29.5893915,78.0464099 27.4677266,79.9891036 25.2075201,80.0653651 C22.9470161,79.9894822 20.825189,78.0466533 20.4138637,75.5445734 C20.2220336,74.3775293 20.0413994,73.0753509 20.0413994,71.1254637 L20.0413994,61.07301 L17.9457879,61.07301 Z" id="Path"></path>
            <polygon id="Path" points="64.5085629 61.07301 64.5085629 81.5270436 62.3559067 81.5270436 62.3559067 71.415636 52.5622553 71.415636 52.5622553 81.5270436 50.4389949 81.5270436 50.4389949 61.07301 52.5622553 61.07301 52.5622553 69.2100024 62.3559067 69.2100024 62.3559067 61.07301"></polygon>
            <polygon id="Path" points="100.835532 81.5283957 102.958874 81.5283957 102.958874 61.0743622 100.835532 61.0743622"></polygon>
            <path d="M134.780006,61.07301 C134.204556,62.1151151 128.821064,71.8069493 128.821064,71.8069493 L128.821064,81.5270436 L126.618864,81.5270436 L126.618864,71.8069493 C126.618864,71.8069493 121.102347,62.1236337 120.504424,61.07301 L122.820231,61.07301 C123.002983,61.3997175 127.70962,69.8465965 127.70962,69.8465965 C127.70962,69.8465965 132.25448,61.4080738 132.433235,61.07301 L134.780006,61.07301 Z" id="Path"></path>
            <polygon id="Path" points="119.403311 61.0297411 119.403311 63.2379438 113.743735 63.2379438 113.743735 81.4809351 111.593837 81.4809351 111.593837 63.2379438 105.769569 63.2379438 105.769569 61.0297682"></polygon>
            <path d="M87.197707,61.0756873 L87.197707,81.5289366 L89.3230768,81.5289366 L89.3230768,72.6904468 L92.149349,72.6904468 C92.149349,72.6904468 96.8121169,81.1965771 96.9962803,81.5289366 L99.4464915,81.5289366 C98.8606843,80.5008398 94.1419913,72.2085391 94.1419913,72.2085391 L94.5658916,72.0681044 C95.5800342,71.7328784 95.9288628,71.516074 96.4309447,70.8935423 C97.2734989,69.9049554 97.7736336,68.4117718 97.7736336,66.8992794 C97.7736336,64.167117 96.2411563,61.8863036 94.0462859,61.3538254 C93.3763206,61.1904852 92.7232302,61.1066246 92.0874745,61.1066246 L89.887574,61.0756873 L87.197707,61.0756873 Z M89.3230768,63.2182294 L90.9982603,63.2182294 C91.5598369,63.2182294 92.506534,63.2799417 93.0372815,63.375539 C93.5675422,63.4460403 94.075844,63.6544884 94.4942815,63.9698648 C95.258546,64.5078598 95.7342338,65.642912 95.7342338,66.9300003 C95.7342338,69.4282671 94.4228067,70.6432856 91.731858,70.6432856 L89.3230768,70.6432856 L89.3230768,63.2182294 Z" id="Shape"></path>
            <path d="M7.06094818,60.9729507 C6.90791409,61.4236506 0.36535201,80.4501881 0.0338038499,81.421846 L2.26872511,81.421846 C2.41198853,80.9965395 3.97627926,76.3374765 3.97627926,76.3374765 L12.1822314,76.3374765 C12.1822314,76.3374765 13.7957027,80.9994331 13.9422492,81.421846 L16.254135,81.421846 C15.9031699,80.444482 9.11935925,61.4124007 8.96169809,60.9729507 L7.06094818,60.9729507 Z M8.03401228,63.9558024 L11.4917405,74.1331951 L4.70257526,74.1331951 L7.74086529,64.8493057 L8.03401228,63.9558024 Z" id="Shape"></path>
        </g>
    </g>
</svg>
